X: 175
M: 6/4
L: 1/4
K: Gm
|: B/c/ |\
(B/c/d)G ^FDG | GA^F G2 :|\
|: d/e/ |\
c2B dfB | AcA BdG |
^FAd =E=FG | ^F3 D2=E/^F/ |\
dAB B>AG | G3 G2 :|

